packages/IcoMoon/src/SortAmountDescIcon/index.svg

<svg version="1.1" xmlns="http://www.w3.org/2000/svg" width="16" height="16" viewBox="0 0 16 16">
<path d="M5 12v-12h-2v12h-2.5l3.5 3.5 3.5-3.5h-2.5z"></path>
<path d="M7 0h9v2h-9v-2z"></path>
<path d="M7 3h7v2h-7v-2z"></path>
<path d="M7 6h5v2h-5v-2z"></path>
<path d="M7 9h3v2h-3v-2z"></path>
</svg>

<svg xmlns="http://www.w3.org/2000/svg" viewBox="0 0 16 16">
  <path d="M5 12V0H3v12H.5L4 15.5 7.5 12H5zM7 0h9v2H7V0zm0 3h7v2H7V3zm0 3h5v2H7V6z"/>
  <path d="M7 9h3v2H7V9z"/>
</svg>
